!!!COM:	Martini, Johannes
!!!CDT:	~1440///-~1497//
!!!OPR:	Missa Cela sans plus
!!!ONM:	5
!!!OTL:	Agnus Dei
!!!AGN:	Mass; Agnus Dei
!!!SCT:	Mar1001e
!!!SCA:	Mar1001e
!!!voices:	4
!!!voices-OPR:	4
**kern	**kern	**kern	**kern
*staff4	*staff3	*staff2	*staff1
*Ivox	*Ivox	*Ivox	*Ivox
*I"Bassus	*I"Tenor	*I"Altus	*I"Superius
*I'B	*I'T	*I'A	*I'S
*>[A,B,A]	*>[A,B,A]	*>[A,B,A]	*>[A,B,A]
*>A	*>A	*>A	*>A
*clefF4	*clefGv2	*clefGv2	*clefG2
*k[]	*k[]	*k[]	*k[]
*M2/1	*M2/1	*M2/1	*M2/1
*met(C|)	*met(C|)	*met(C|)	*met(C|)
!!section: Agnus Dei I, III
!!!OMD: Agnus Dei I, III
=1-	=1-	=1-	=1-
0r	0r	0d	0r
=2	=2	=2	=2
0r	0r	1c	0r
.	.	2A/	.
.	.	2c\	.
=3	=3	=3	=3
0D	0r	2B\	0r
.	.	1A	.
.	.	4G/	.
.	.	4F/	.
=4	=4	=4	=4
1C	0r	4E/	0r
.	.	4F/	.
.	.	4G/	.
.	.	4A/	.
1BB	.	2B\	.
.	.	2d\	.
=5	=5	=5	=5
2AA/	0r	2c\	0a
1D	.	2.f\	.
.	.	4e\	.
2F\	.	[2d\	.
=6	=6	=6	=6
1E	0r	2d\]	1g
.	.	2c#i\	.
1D	.	1d	2.f/
.	.	.	4g/
=7	=7	=7	=7
1F	0A	2D/	4a/
.	.	.	4b-i\
.	.	2.F/	2.a/
1D	.	.	.
.	.	4E/	4g/
.	.	[2D/	2f/
=8	=8	=8	=8
0r	1G	2D/]	1e
.	.	2C#i/	.
.	1F	1D	1d
=9	=9	=9	=9
2.AA/	0E	0A	2.c/
4BB/	.	.	4d/
2C/	.	.	2e/
2AA/	.	.	[2f/
=10	=10	=10	=10
1C	0r	1G	4f/]
.	.	.	4e/
.	.	.	1e
1D	.	1F	.
.	.	.	2d/
=11	=11	=11	=11
1C	0G	1E	2.e/
.	.	.	4d/
1E	.	2r	2c/
.	.	2G/	[2B/
=12	=12	=12	=12
2D\	1F	1A	4B/]
.	.	.	4A/
2C/	.	.	1A
1BB	1D	1B	.
.	.	.	2G#i/
=13	=13	=13	=13
2AA/	0E	2c\	1A
2.C/	.	2.A/	.
.	.	.	1r
4D\	.	4B\	.
2E\	.	2c\	.
=14	=14	=14	=14
2.F\	[0D	2d\	0r
.	.	2.f\	.
4G\	.	.	.
2A\	.	.	.
.	.	4e\	.
[2B-i\	.	[2d\	.
=15	=15	=15	=15
2B-\]	0D]	2d\]	1r
4A\	.	4c\	.
4G\	.	4B\	.
2.F#i\	.	1A	1a
4E\	.	.	.
=16	=16	=16	=16
1G	0r	0G	1.b
2.GG/	.	.	.
.	.	.	[2dd\
4AA/	.	.	.
=17	=17	=17	=17
2BB/	0r	1G	2dd\]
2C/	.	.	4cc\
.	.	.	4b\
1AA	.	1A	1cc
=18	=18	=18	=18
0GG	0G	0B	2b\
.	.	.	2.dd\
.	.	.	4cc\
.	.	.	[2b\
=19	=19	=19	=19
1GG	1G	1B	4b\]
.	.	.	4a/
.	.	.	4g/
.	.	.	4f/
1r	1A	1c	1e
=20	=20	=20	=20
0r	0B	1.d	1d
.	.	.	2r
.	.	2c\	[2g/
=21	=21	=21	=21
0r	1B	2B\	2g/]
.	.	2G/	2b\
.	1c	1A	2a/
.	.	.	2cc\
=22	=22	=22	=22
0r	1.d	2G/	2b\
.	.	4F/	4a/
.	.	4E/	4g/
.	.	2D/	2f/
.	2c\	[2F/	[2a/
=23	=23	=23	=23
0r	2B\	4F/]	4a/]
.	.	4G/	4g/
.	2G/	2E/	1g
.	1A	1D	.
.	.	.	2f#i/
=24	=24	=24	=24
0r	[0G	1.d	1.g
.	.	2c\	4f/
.	.	.	4e/
=25	=25	=25	=25
1.G	1G]	1B	1d
.	1r	1A	1r
2F\	.	.	.
=26	=26	=26	=26
1E	0r	2G/	0r
.	.	2c\	.
1D	.	2B\	.
.	.	[2A/	.
=27	=27	=27	=27
0C	0r	2A/]	0r
.	.	2G/	.
.	.	2A/	.
.	.	[2G/	.
=28	=28	=28	=28
1C	0r	4G/]	0r
.	.	4F/	.
.	.	4E/	.
.	.	4D/	.
1C	.	1E	.
=29	=29	=29	=29
1.D	0r	2D/	1d
.	.	2.F/	.
.	.	.	1f
.	.	4G/	.
2C/	.	2A/	.
=30	=30	=30	=30
1BB	1.d	2D/	1g
.	.	1G	.
1AA	.	.	1a
.	2c\	2F#i/	.
=31	=31	=31	=31
1GG	1B	1G	2d/
.	.	.	1g
1AA	1A	1c	.
.	.	.	2c/
=32	=32	=32	=32
2BB/	0G	1r	2d/
2.C/	.	.	2.e/
.	.	1c	.
4D\	.	.	4f/
[2E\	.	.	[2g/
=33	=33	=33	=33
4E\]	1G	2B\	4g/]
4D\	.	.	4f/
2C/	.	2c\	2e/
2BB/	1G	2d\	2d/
2C/	.	[2c\	[2e/
=34	=34	=34	=34
1AA	1.A	4c\]	4e/]
.	.	4d\	4d/
.	.	2e\	4c/
.	.	.	4B/
2D\	.	2f\	2A/
2E\	2G/	[2e\	2r
=35	=35	=35	=35
2F\	1F	4e\]	1a
.	.	4d\	.
2D\	.	1d	.
1G	1E	.	2g/
.	.	2c\	2cc\
=36	=36	=36	=36
2F\	0D	2d\	2b\
2D\	.	1f	2.a/
2F\	.	.	.
.	.	.	4g/
2G\	.	[2d\	[2g/
=37	=37	=37	=37
1D	1A	1d]	2g/]
.	.	.	2f/
2E\	[1G	2B\	2g/
[2C/	.	[2c\	[2e/
=38	=38	=38	=38
4C/]	2G/]	4c\]	2e/]
4D\	.	4B\	.
2E\	2E/	4A/	4d/
.	.	4G/	4c/
1D	1F#i	1A	4d/
.	.	.	4c/
.	.	.	4B/
.	.	.	4A/
=39	=39	=39	=39
1GG	0G	1G	1B
2r	.	2g\	2c/
[2GG/	.	4f\	[2d/
.	.	4e\	.
=40	=40	=40	=40
4GG/]	0r	2d\	2d/]
4AA/	.	.	.
4BB/	.	4c\	2.g/
4C/	.	4B\	.
2D\	.	2A/	.
.	.	.	4f/
[2G\	.	[2B\	4e/
.	.	.	4d/
=41	=41	=41	=41
4G\]	0G	4B\]	2e/
4F\	.	4A/	.
4E\	.	1G	1d
4D\	.	.	.
1E	.	.	.
.	.	4F/	2c#i/
.	.	4E/	.
=42	=42	=42	=42
3%2DV	1A	3%2FV	1d
3E\Z	.	3G/Z	.
3F\V	1F	3%2AV	1r
3%2DZ	.	.	.
.	.	3B\Z	.
=43	=43	=43	=43
1C	0E	1.c	1g
1AA	.	.	1a
.	.	[2A/	.
=44	=44	=44	=44
1D	0r	2A/]	1f
.	.	2d\	.
1E	.	2B\	[1e
.	.	[2c\	.
=45	=45	=45	=45
1C	0G	4c\]	2e/]
.	.	4d\	.
.	.	2e\	2c/
1BB	.	2d\	2d/
.	.	2e\	4c/
.	.	.	4B/
=46	=46	=46	=46
2r	1F	4f\	2A/
.	.	4e\	.
1D	.	4d\	2.d/
.	.	4c\	.
.	1D	2d\	.
.	.	.	4e/
2D\	.	2A/	2f/
=47	=47	=47	=47
2C/	0E	2c\	2e/
2BB/	.	2G/	2.d/
1AA	.	1A	.
.	.	.	4c#i/
.	.	.	2c#i/
=48	=48	=48	=48
0Al	0Dl	0Fl	0dl
!!LO:LB:i:g=z
=49||	=49||	=49||	=49||
*>B	*>B	*>B	*>B
*clefF4	*clefGv2	*clefGv2	*clefG2
*k[]	*k[]	*k[]	*k[]
*M2/1	*M2/1	*M2/1	*M2/1
*met(C|)	*met(C|)	*met(C|)	*met(C|)
!!section: Agnus Dei II
!!!OMD: Agnus Dei II
0D	0r	0r	0r
=50	=50	=50	=50
1F	0r	0r	0r
1E	.	.	.
=51	=51	=51	=51
4D\	0r	0D	0r
4E\	.	.	.
4F\	.	.	.
4G\	.	.	.
2A\	.	.	.
[2F\	.	.	.
=52	=52	=52	=52
4F\]	0r	1F	0r
4E\	.	.	.
1D	.	.	.
.	.	1E	.
2C#i/	.	.	.
=53	=53	=53	=53
1D	0r	1D	0d
1GG	.	1G	.
=54	=54	=54	=54
1D	0r	2F/	1f
.	.	1A	.
1C	.	.	1e
.	.	[2G/	.
=55	=55	=55	=55
2G\	0r	2G/]	1d
2F\	.	2A/	.
1E	.	2B\	1g
.	.	2c\	.
=56	=56	=56	=56
1.D	0r	1.d	2f/
.	.	.	1a
[2E\	.	2B\	[2g/
=57	=57	=57	=57
2E\]	0r	1c	2g/]
2F\	.	.	2a/
1D	.	2.d\	2.b\
.	.	4c\	4cc\
=58	=58	=58	=58
0GG	0r	4B\	1.dd
.	.	4A/	.
.	.	2.G/	.
.	.	4A/	.
.	.	2B\	2b\
=59	=59	=59	=59
1AA	0r	1A	1cc
1BB	.	1D	1dd
=60	=60	=60	=60
2GG/	0r	1r	2b\
2.C/	.	.	2.g/
.	.	1G	.
4BB/	.	.	4a/
2GG/	.	.	2b\
=61	=61	=61	=61
1D	0r	2F/	1a
.	.	2D/	.
1BB-	.	2F/	1d
.	.	2G/	.
=62	=62	=62	=62
1AA	0r	1A	1r
2.E\	.	2B\	1g
.	.	2c\	.
4C/	.	.	.
=63	=63	=63	=63
1.D	0r	2A/	2f/
.	.	1d	2d/
.	.	.	2f/
2E\	.	4c\	2g/
.	.	4B\	.
=64	=64	=64	=64
1F	0r	1A	1a
2G\	.	2G/	2b\
[2F\	.	2A/	2cc\
=65	=65	=65	=65
2F\]	0r	2c\	2a/
1.G	.	2.B\	2.dd\
.	.	4A/	4cc\
.	.	[2G/	2b\
=66	=66	=66	=66
1D	0r	2G/]	1a
.	.	2F#i/	.
2E\	.	2G/	2g/
[2F\	.	[2c\	2a/
=67	=67	=67	=67
2F\]	0r	2c\]	2cc\
2D\	.	2d\	2.b\
1C	.	1e	.
.	.	.	4a/
.	.	.	[2g/
=68	=68	=68	=68
1D	0r	1d	2g/]
.	.	.	2f/
2.E\	.	2.g\	2g/
.	.	.	[2c/
4D\	.	4f\	.
=69	=69	=69	=69
2E\	0r	4e\	2c/]
.	.	4d\	.
2F\	.	1d	2d/
2G\	.	.	1e
2A\	.	2c#i\	.
=70	=70	=70	=70
1D	0r	2d\	1d
.	.	2F/	.
1C	.	2G/	2.g/
.	.	[2A/	.
.	.	.	4f/
=71	=71	=71	=71
2AA/	0r	2A/]	4e/
.	.	.	4d/
2D\	.	4G/	1d
.	.	4F/	.
1AA	.	1E	.
.	.	.	2c#i/
=72	=72	=72	=72
1r	0r	[0D	0d
1D	.	.	.
=73	=73	=73	=73
1.F	0r	0D]	1r
.	.	.	1d
2E\	.	.	.
=74	=74	=74	=74
2.D\	0r	0r	1f
4C/	.	.	.
2AA/	.	.	2e/
[2BB/	.	.	[2d/
=75	=75	=75	=75
2BB/]	0r	1d	2d/]
2C/	.	.	4c/
.	.	.	4B/
2D\	.	1f	1A
2F\	.	.	.
=76	=76	=76	=76
2C/	0r	2e\	1G
1G	.	1d	.
.	.	.	2B/
[2A\	.	4c\	[2A/
.	.	4B\	.
=77	=77	=77	=77
2A\]	0r	1A	4A/]
.	.	.	4B/
4G\	.	.	4c/
4F\	.	.	4d/
2E\	.	1G	2e/
[2G\	.	.	[2d/
=78	=78	=78	=78
4G\]	0r	2B\	2d/]
4F\	.	.	.
2D\	.	2.A/	2f/
1A	.	.	2.e/
.	.	4B\	.
.	.	4c\	.
.	.	4d\	4f/
=79	=79	=79	=79
2G\	0r	2e\	2g/
2F\	.	1d	2a/
1G	.	.	2.b\
.	.	[2g\	.
.	.	.	4cc\
=80	=80	=80	=80
1D	0r	2g\]	1a
.	.	2f#i\	.
2r	.	1g	1g
[2GG/	.	.	.
=81	=81	=81	=81
4GG/]	0r	0d	0r
4AA/	.	.	.
1BB	.	.	.
[2D\	.	.	.
=82	=82	=82	=82
2D\]	0r	1e	0r
2C#i/	.	.	.
1D	.	1d	.
=83	=83	=83	=83
0G	0r	2.B\	0r
.	.	4c\	.
.	.	2d\	.
.	.	[2e\	.
=84	=84	=84	=84
1A	0r	2e\]	0r
.	.	4d\	.
.	.	4c\	.
1G	.	1B	.
=85	=85	=85	=85
2.E\	0r	2.G/	0r
4F\	.	4A/	.
2G\	.	2B\	.
[2A\	.	2c\	.
=86	=86	=86	=86
2A\]	0r	2A/	1r
4G\	.	1d	.
4F\	.	.	.
1E	.	.	1e
.	.	2c#i\	.
=87	=87	=87	=87
2.D\	0r	0d	1.f
4E\	.	.	.
2F\	.	.	.
[2G\	.	.	2e/
=88	=88	=88	=88
4G\]	0r	1r	2d/
4F\	.	.	.
2.A\	.	.	4c/
.	.	.	4B/
.	.	1e	1A
4G\	.	.	.
4F\	.	.	.
4E\	.	.	.
=89	=89	=89	=89
1.D	0r	1.f	2r
.	.	.	1d
2C/	.	2e\	2e/
=90	=90	=90	=90
2D\	0r	2d\	2f/
2E\	.	4c\	2g/
.	.	4B\	.
2F\	.	1A	2.a/
2G\	.	.	.
.	.	.	4b\
=91	=91	=91	=91
2.A\	0r	2r	2cc\
.	.	1D	1dd
4B\	.	.	.
1A	.	.	.
.	.	2E/	4cc\
.	.	.	4b\
=92	=92	=92	=92
2r	0r	2.F/	1.a
2D\	.	.	.
.	.	4G/	.
2F\	.	2A/	.
2G\	.	2B\	4g/
.	.	.	4f/
=93	=93	=93	=93
2A\	0r	2c\	2e/
1D	.	1d	1f
2E\	.	4c\	4e/
.	.	4B\	4d/
=94	=94	=94	=94
1F	0r	2A/	2.c/
.	.	4G/	.
.	.	4F/	4A/
2G\	.	2E/	2c/
[2A\	.	[2F/	2d/
=95	=95	=95	=95
2A\]	0r	2F/]	2f/
2.G\	.	4E/	2g/
.	.	4D/	.
.	.	2C/	2e/
4F\	.	.	.
[2D\	.	2D/	[2f/
=96	=96	=96	=96
2D\]	0r	2F/	4f/]
.	.	.	4e/
2GG/	.	2G/	1d
1AA	.	1E	.
.	.	.	2c#i/
=97	=97	=97	=97
0Al	0r	0Dl	0dl
!!LO:TX:i:Y=40:rj:t=Agnus I ut supra
=||	=||	=||	=||
*-	*-	*-	*-
!!!RDF**kern: l=long note in original notation
!!!RDF**kern: i=editorial accidental
!!!RDF**kern: V=start of tuplet marker
!!!RDF**kern: Z=end of tuplet marker
!!!ENC:	Chris Gage 10-31-2013
!!!END:	2015/02/24/
!!!EED:	Jesse Rodin
!!!EEV:	2015/03/09/
!!!ONB:	Translated from MusicXML and edited on 2015/03/09/ by Craig Sapp
!!muse2ps: T^@{OPR}^u^@{ONM}{. }@{OTL}^C^@{COM}^i2I150v85,85,85,150Q16
